icons/mortar-pestel.svg

<?xml version="1.0" encoding="UTF-8"?><svg xmlns="http://www.w3.org/2000/svg" viewBox="0 0 50 50"><g id="uuid-34c5ed73-1e2d-46d0-a3c3-96f98e0d45ac"><path d="M47.29,14.59c1.17-1.37,1.74-3.11,1.59-4.91-.14-1.8-.97-3.44-2.34-4.61-2.83-2.42-7.1-2.08-9.52,.75-1.01,1.19-1.58,2.68-1.61,4.23l-9.77,11.43c-.55,0-1.11,0-1.67,0-7.17,0-13.55-.02-17.65-.04l-4.73-.02h0c-.13,0-.26,.05-.35,.15-.09,.09-.15,.22-.15,.35,0,7.99,4.07,14.64,11.17,18.27v5.86c0,.28,.22,.5,.5,.5h22.85c.28,0,.5-.22,.5-.5v-6.08c6.84-3.71,10.76-10.29,10.76-18.11,0-.13-.05-.26-.15-.36-.09-.09-.23-.16-.36-.14-.05,0-3.11,.04-7.86,.07l4.11-4.5c1.8-.1,3.49-.94,4.69-2.33ZM13.26,45.55v-5.34h21.85v5.34H13.26Zm22.15-6.34H12.71s-.07,.01-.11,.02c-6.53-3.39-10.33-9.47-10.5-16.8l4.23,.02h0c4.1,.02,10.48,.04,17.65,.04,10.66,0,19.68-.1,21.88-.12-.17,7.3-3.95,13.41-10.45,16.84Zm6.6-23.11l-4.88,5.34c-2.94,.02-6.41,.04-10.17,.04l9.33-10.92c.08-.09,.12-.21,.12-.33-.02-1.37,.47-2.71,1.37-3.76,2.06-2.41,5.7-2.7,8.11-.64,1.17,1,1.87,2.39,2,3.92,.12,1.53-.36,3.02-1.36,4.19-1.05,1.23-2.57,1.96-4.16,1.99-.14,0-.27,.06-.36,.16Z"/></g><g id="uuid-29c5594b-4386-43a4-a773-195f7c2bb281"><text transform="translate(0 54.84)" font-family="Roboto-Regular, Roboto" font-size="6"><tspan x="0" y="0">mo</tspan><tspan x="8.68" y="0" letter-spacing=".02em">r</tspan><tspan x="10.86" y="0">tar-pestel</tspan></text></g></svg>

<svg xmlns="http://www.w3.org/2000/svg" viewBox="0 0 50 50"><g id="ae18beec-487e-45ee-9418-d9eb229cfa1a" data-name="ICONS"><path d="M47.29,14.59a6.75,6.75,0,1,0-11.88-4.54L25.65,21.48H24c-7.17,0-13.55,0-17.65,0l-4.73,0h0a.47.47,0,0,0-.35.15.51.51,0,0,0-.15.35A19.91,19.91,0,0,0,12.26,40.19v5.86a.5.5,0,0,0,.5.5H35.61a.51.51,0,0,0,.5-.5V40A20,20,0,0,0,46.87,21.86a.5.5,0,0,0-.51-.5c-.06,0-3.11,0-7.86.07l4.11-4.5A6.65,6.65,0,0,0,47.29,14.59Zm-34,31V40.2H35.11v5.35ZM35.41,39.2H12.71a.35.35,0,0,0-.11,0A18.89,18.89,0,0,1,2.1,22.42l4.23,0h0c4.09,0,10.48,0,17.65,0,10.66,0,19.68-.09,21.88-.12A19,19,0,0,1,35.41,39.2ZM42,16.1l-4.88,5.34L27,21.48l9.33-10.92a.45.45,0,0,0,.12-.33,5.75,5.75,0,1,1,10.12,3.71,5.6,5.6,0,0,1-4.16,2A.53.53,0,0,0,42,16.1Z"/></g><g id="b63f4a6b-8cf0-4b3e-b824-941ec93befcd" data-name="LABELS"><text transform="translate(0 54.84)" font-size="6" font-family="Roboto-Regular, Roboto">mo<tspan x="8.68" y="0" letter-spacing="0.02em">r</tspan><tspan x="10.86" y="0">tar-pestel</tspan></text></g></svg>
